X: 11048
T: JOYCE'S WALTZ
C: Bob McQuillen 29 Dec 95
B: Bob's Note Book 11 #48
R: waltz
Z: 2020 John Chambers <jc:trillian.mit.edu>
M: 3/4
L: 1/4
K: G
D \
| "G"d3 | "D7"cdc | "G"B3- | B2d | B3 | "D7"ABA | "G"G3- | G2"G7"G |\
| "C"G>AG | GFE | "G"D3 | "Em"G2A | "Am"Bcd | d2c | "D7"B3 | ABc |
| "G"d3 | "D7"cdc | "G"B3- | B2d | B3 | "D7"ABA | "G"G3 | "G7"GAB |\
| "C"c3 | cde | "G"dB>G | "Em"EGE | "G"D2B | "D7"A2G | "G"G3- | G2 |]
[| G \
| "D7"A3 | AGA | "G"B3 | G2A | B3 | "D7"ABc | "G"d3 | Bcd |\
| "C"c3 | cde | "G"d2B | "Em"G2F | "A7"EFG | ABc | "D7"dcB | AFG |
| "D7"A>FD | ABc | "G"B3 | G2A | B3 | "C"cde | "G"d3 | "G7"Bcd |\
| "C"e3 | efg | "G"dge | "C"edc | "G"B3 | "D7"A2G | "G"G3- | G2 |]
%%begintext align
%% One of the happy places I get to
%% go to each summer is the Augusta Heritage Center down
%% in Elkins, WV. It's a place full of love and great music
%% (I tend to think the two go together), and one of the many people
%% there who are nice to me is Joyce Nestor. Much love to you,
%% Joyce, and thanks for everything!
%%endtext

%%sep 1 1 500

%%sep 1 1 500

